X:1
T:Throw the Dead Cat Under the Rug  "arr: G. M. Bottoni, 9/93"
M:C
L:1/8
Q:80
C:Trad
S:Reel
K:HP
|: {g}e2{A}e2{g}edB2 | \
{g}dedB{g}ABdA | \
{g}e2f2{g}edB2 |
{g}A2Bd{g}e2{A}e2 :: \
{g}e2a2ede2 | \
{g}e2f2{g}edBd |
{g}e2a2ede2 | \
{g}efBd{g}e2{A}e2|1 a2|]
